X: 1
T: Johnny Henry's
M: 4/4
L: 1/8
R: reel
K: Dmaj
|:A3B defd | a2fd edBd | A3B defe | dBAf EFD2 :|
|:a3f defd | adfd edBd | a3f defe | dBAf EFD2 :|
